X:1
T:Down by the glenside
C:P.Kearny
M:3/4
K:G
e2e2|"Am"A2A3B|"G"A2G3B|"C"c3de2|"Am"g2e3A|
A3BA2|"G"G3AB2|"C"c3de2|"Am"g4ed|e2a2b2|
a3AB2|"C"c3dc2|"Em"B2G4-|G3AB2|"C"c3de2|
"Am"g4ed|e2A2G2|"Am"A6:|
"C"c6-|c6|"D"d6-|d6|"Em"e6-|e6|z6|
